X:1
T:God Bless the Prince of Wales
T:Brinley Richards (1817-1885)
T:George Linley (1798-1865)
T:TCPB1
T:God Bless the Prince of Wales
T:Copyright © 2015 by CPDL This edition can be fully distributed, duplicated, performed, and recorded 
T:Copyright © 2015 by CPDL This edition can be fully distributed, duplicated, performed, and recorded 
T:Copyright © 2015 by CPDL This edition can be fully distributed, duplicated, performed, and recorded 
C:Brinley Richards
C:(1817-1885)
Z:George Linley
Z:(1798-1865)
Z:Copyright © 2015 by CPDL
Z:This edition can be fully distributed, duplicated, performed, and recorded
%%score 1 { ( 2 4 ) | ( 3 5 ) }
L:1/8
Q:1/4=100
M:4/4
K:G
V:1 treble nm="Voice" snm="Voice"
V:2 treble nm="Piano" snm="Pno."
V:4 treble 
V:3 bass 
V:5 bass 
V:1
"^Moderato con anima" z2 | z8 | z8 | z8 | z6 |:!mf!"^1.""^2." D2 | B3 d c2 B2 | B4 A2 A2 | %8
w: ||||||||
w: |||||A-|mong our an- cient|moun- tains, And|
w: |||||Should|hos- tile bands or|dan- ger E’er|
 G3 B A2 G2 | F6"^cresc." D2 | d3 B G2 F2 | E2 E4!f! c2 | B3 G A3 G | G6!mf! B2 | A3 E F2 G2 | %15
w: |||||||
w: from our love- ly|vales, Oh!|let the pray’r re-|ech- o, “God|bless the Prince of|Wales!” With|heart and voice a-|
w: threat- en our fair|Isle, May|God’s strong arm pro-|tect us, May|Heav’n still on us|smile! A-|bove the Throne of|
 F2 A4 F2 |"^cresc." E2 A2 d3 d | ^c6!f! c2 | d3 ^c B2 A2 | F2 A4 D2 | D3 F E3 D | D6!mf! D2 | %22
w: ||||||* A-|
w: wak- en Those|min- strel strains of|yore, Till|Brit- ain’s name and|glo- ry Re-|sound from shore to|shore. *|
w: Eng- land May|for- tune’s star long|shine, And|round its sa- cred|bul- warks The|ol- ive branch- es|twine! *|
 B3 d c2 B2 | B4 A2 A2 | G3 B A2 G2 | F6"^cresc." D2 | d3 B G2 F2 | E2 E4!f! c2 | !>!B3 G A3 G | %29
w: mong our an- cient|moun- tains, And|from our love- ly|vales, Oh!|let the pray’r re-|ech- o, God|bless the Prince of|
w: |||||||
w: |||||||
 G6 :| %30
w: Wales!|
w: |
w: |
V:2
!f!"^Moderato con anima" D2 | ([Gd]3 B) [DG]2 [^DF]2 | !>!E2 !>!E4 !>![Ec]2 | %3
 !>![DB]3 [B,G] !>![CA]3 [B,G] | [B,G]6 |:!mf! D2 | [DB]3 [Gd] [Fc]2 [DB]2 | [DB]4- [DA]2 [DFA]2 | %8
 (G3 B) A2 G2 | [DF]6"^cresc." D2 | (d3 B) [DG]2 [^DF]2 | E2 E4!f! [Ec]2 | %12
 ([DB]3 [B,G]) ([CA]3 [B,G]) | [B,G]6!mf! [DB]2 | [^CA]3 [CE] [A,DF]2 [A,CG]2 | %15
 [A,DF]2 [A,DA]4 [DF]2 |"^cresc." E2 [EA]2 d3 d | [E^c]6!f! [EAc]2 | (d3 ^c) [DB]2 [DA]2 | %19
 [DF]2 [DA]4 [B,D]2 | [A,D]3 [DF] [^CE]3 D | [A,D]6 [CD]2 | [DB]3 [Gd] [Fc]2 [DB]2 | %23
 [DB]4- [DA]2 [DFA]2 | (G3 B) A2 G2 | [DF]6"^cresc." D2 | (d3 B) [DG]2 [^DF]2 | %27
 [CE]2 [CE]4!f! !>![Ec]2 | (!>![DB]3 [B,DG]) (!>![CDA]3 [B,DG]) | !>![B,DG]6 :| %30
V:3
 z2 | [B,,G,]4 [B,,G,]2 [B,,A,]2 | !>![C,G,]2 !>![C,G,]4 !>![A,,G,]2 | !>![D,G,]4 !>![D,F,]2 z2 | %4
 [G,,G,]6 |: z2 | [G,,G,]3 B, A,2 G,2 | [D,-G,]4 [D,F,]2 [D,C]2 | [E,B,]4 [A,,E,]4 | %9
 [D,A,]6 [C,F,]2 | [B,,G,]4 [B,,G,]2 [B,,A,]2 | [C,G,]2 [C,G,]4 [A,,G,]2 | [D,G,]4 [D,F,]3 G, | %13
 G,6 G,2 | G,3 G, F,2 E,2 | D,2 F,4 [D,A,]2 | [^C,A,]2 [C,A,]2 [B,,A,]2 [E,^G,]2 | %17
 [A,,A,]2 [B,,B,]2 [A,,A,]2 [!courtesy!=G,,!courtesy!=G,]2 | [F,,F,]4 [G,,G,]2 [F,,F,]2 | %19
 [D,,D,]2 [F,,F,]4 [G,,G,]2 | F,3 A, [A,,G,]4 | F,6!mf! F,2 | [G,,G,]3 B, A,2 G,2 | %23
 [D,G,]4- [D,F,]2 [D,C]2 | [E,B,]4 [A,,E,]4 | A,6 [C,F,]2 | [B,,G,]4 [B,,G,]2 [B,,A,]2 | %27
 [C,G,]2 [C,G,]4 !>![A,,G,]2 | !>![D,G,]4 !>![D,F,]3 [G,,G,] | !>![G,,G,]6 :| %30
V:4
 x2 | D4 x4 | x8 | x8 | x6 |: x2 | x8 | x8 | D4 ^C4 | x8 | D4 x4 | x8 | x8 | x8 | x8 | x8 | %16
 x4 (F2 E2) | x8 | [DA]4 x4 | x8 | x8 | x8 | x8 | x8 | D4 ^C4 | x8 | D4 x4 | x8 | x4 x3 x | x6 :| %30
V:5
 x2 | x8 | x8 | x8 | x6 |: x2 | x8 | x8 | x8 | x8 | x8 | x8 | x8 | x8 | x8 | x8 | x8 | x8 | x8 | %19
 x8 | A,,4 x4 | D,2 C,2 B,,2 A,,2 | x8 | x8 | x8 | D,2 E,2 D,2 x2 | x8 | x8 | x4 x3 x | x6 :| %30

